X: 2
T: The Broken Pledge
R: reel
M: 4/4
L: 1/8
K: Ddor
|dcAG ADDd|cAGF ECCE|DEFG Addc|Ac1/2A1/2GB Adfe|dcAG (3EFG AB|cdBd cAGE|DEFG Addc|Ac1/2A1/2GE EDD2:|||dcAG Adde|f2df ecAB|~c3A GAcd|ecc2 eage|dcAG Adde|f2df ecAG|F2~F2 FGAd|cAGE EDD2:||


Tune 1423	Setting 14797

